!!!!SEGMENT: pl-sa--l-1643--056_anonim--veni-ad-liberandum-nos-domine.krn
!!!cenid: 16xx:1414
!!!COM: Anonim
!!!COM-rismid: pe30004985
!!!CDT:
!!!CNT:
!!!OTL: Veni ad liberandum nos Domine
!!!PDT:
!!!AGN: Sacred
!!!SMS-siglum: PL-SA
!!!SMS-shelfmark: L 1643
!!!SMS-shelfwork: 056 W
!!!SMS-variant:
!!!SMS-altvar:
!!!NIFC-rismid: 1001064770
!!!URL-scan: http://repozytorium.nifc.pl/skany/pl-sa-nut--l1643
!!!ONB-nifc: UWAGA: 8 ksiąg. Primi chori: 1mus Cantus (90), C 2dus (89), C 3tius (86-87), Bassus (84-85); Secondi chori: Primus Cantus (82-83), C 2dus (85-86), Altus (83-84), Bassus (84-85). UWAGA: Nie dodawać pustych linii, chyba że w rękopisie pojawiają się dodatkowe oznaczenia dotyczące pełnej obsady (a 4, a 8 itp.)
**kern	**text	**kern	**text	**kern	**text	**kern	**text	**kern	**text	**kern	**text	**kern	**text	**kern	**text
*part8	*part8	*part7	*part7	*part6	*part6	*part5	*part5	*part4	*part4	*part3	*part3	*part2	*part2	*part1	*part1
*staff8	*staff8	*staff7	*staff7	*staff6	*staff6	*staff5	*staff5	*staff4	*staff4	*staff3	*staff3	*staff2	*staff2	*staff1	*staff1
*Iempty	*	*Iempty	*	*Iempty	*	*Iempty	*	*Iempty	*	*Iempty	*	*Iempty	*	*Iempty	*
*I"Baſsus 2di Chori.	*	*I"Altus secundi Chori.	*	*I"Cantus 2dus Secundi Chori.	*	*I"Primus Cantus 2di Chori	*	*I"Bassus Primi Chori.	*	*I"Cantus 3tius Primi Chori	*	*I"Cantus 2dus Primi Chori.	*	*I"Im(us) Cantus Primi Chori	*
*I'Coro 2 B	*	*I'Coro 2 A	*	*I'Coro 2 S 2	*	*I'Coro 2 S 1	*	*I'Coro 1 B	*	*I'Coro 1 S 3	*	*I'Coro 1 S 2	*	*I'Coro 1 S 1	*
*clefC3	*	*clefC2	*	*clefC1	*	*clefG2	*	*clefC3	*	*clefC2	*	*clefC1	*	*clefG2	*
*k[]	*	*k[]	*	*k[]	*	*k[]	*	*k[]	*	*k[]	*	*k[]	*	*k[]	*
*G:	*	*G:	*	*G:	*	*G:	*	*G:	*	*G:	*	*G:	*	*G:	*
*M2/2	*	*M2/2	*	*M2/2	*	*M2/2	*	*M2/2	*	*M2/2	*	*M2/2	*	*M2/2	*
*met(c|)	*	*met(c|)	*	*met(c|)	*	*met(c|)	*	*met(c|)	*	*met(c|)	*	*met(c|)	*	*met(c|)	*
=1-	=1-	=1-	=1-	=1-	=1-	=1-	=1-	=1-	=1-	=1-	=1-	=1-	=1-	=1-	=1-
!!LO:TX:t=P:problem:oddech/cezura na różnej wysokości
!	!	!	!	!	!	!	!	!	!	!	!	!	!	!LO:TX:t=In Aduen\nD(omi)ni.:color=red	!
00r	.	00r	.	00r	.	00r	.	00r	.	00r	.	00r	.	1dd	Ve-
=2-	=2-	=2-	=2-	=2-	=2-	=2-	=2-	=2-	=2-	=2-	=2-	=2-	=2-	=2-	=2-
.	.	.	.	.	.	.	.	.	.	.	.	.	.	2b/	-ni
.	.	.	.	.	.	.	.	.	.	.	.	.	.	2b/	ad
=3-	=3-	=3-	=3-	=3-	=3-	=3-	=3-	=3-	=3-	=3-	=3-	=3-	=3-	=3-	=3-
.	.	.	.	.	.	.	.	.	.	.	.	.	.	4b/	li-
.	.	.	.	.	.	.	.	.	.	.	.	.	.	4b/	-be-
.	.	.	.	.	.	.	.	.	.	.	.	.	.	2cc\	-ran-
=4-	=4-	=4-	=4-	=4-	=4-	=4-	=4-	=4-	=4-	=4-	=4-	=4-	=4-	=4-	=4-
.	.	.	.	.	.	.	.	.	.	.	.	.	.	2b/	-dum
.	.	.	.	.	.	.	.	.	.	.	.	.	.	2b/	nos
=5-	=5-	=5-	=5-	=5-	=5-	=5-	=5-	=5-	=5-	=5-	=5-	=5-	=5-	=5-	=5-
0r	.	0r	.	0r	.	0r	.	0r	.	0r	.	0r	.	2.a/	Do-
.	.	.	.	.	.	.	.	.	.	.	.	.	.	4a/	-mi-
=6-	=6-	=6-	=6-	=6-	=6-	=6-	=6-	=6-	=6-	=6-	=6-	=6-	=6-	=6-	=6-
.	.	.	.	.	.	.	.	.	.	.	.	.	.	1g	-ne
=7-	=7-	=7-	=7-	=7-	=7-	=7-	=7-	=7-	=7-	=7-	=7-	=7-	=7-	=7-	=7-
2.G/	Do-	2.d/	Do-	2.b\	Do-	2.dd\	Do-	2.g\	Do-	2.g\	Do-	2.dd\	Do-	00r	.
4G/	-mi-	4g\	-mi-	4b\	-mi-	4dd\	-mi-	4g\	-mi-	4g\	-mi-	4dd\	-mi-	.	.
=8-	=8-	=8-	=8-	=8-	=8-	=8-	=8-	=8-	=8-	=8-	=8-	=8-	=8-	=8-	=8-
2c/	-ne	2g\	-ne	2cc\	-ne	2ee\	-ne	2c/	-ne	2e/	-ne	2cc\	-ne	.	.
2G/	De-	2g\	De-	2b\	De-	2dd\	De-	2g\	De-	2g\	De-	2dd\	De-	.	.
=9-	=9-	=9-	=9-	=9-	=9-	=9-	=9-	=9-	=9-	=9-	=9-	=9-	=9-	=9-	=9-
2G/	-us	2g\	-us	2dd\	-us	2dd\	-us	2g\	-us	2g\	-us	2b\	-us	.	.
2c/	Vir-	2e/	Vir-	2cc\	Vir-	2ee\	Vir-	2c/	Vir-	2g\	Vir-	2cc\	Vir-	.	.
=10-	=10-	=10-	=10-	=10-	=10-	=10-	=10-	=10-	=10-	=10-	=10-	=10-	=10-	=10-	=10-
4F/	-tu-	1c	-tu-	1cc	-tu-	1ff	-tu-	1f	-tu-	1a	-tu-	1cc	-tu-	.	.
4G/	.	.	.	.	.	.	.	.	.	.	.	.	.	.	.
4A/	.	.	.	.	.	.	.	.	.	.	.	.	.	.	.
4B/	.	.	.	.	.	.	.	.	.	.	.	.	.	.	.
=11-	=11-	=11-	=11-	=11-	=11-	=11-	=11-	=11-	=11-	=11-	=11-	=11-	=11-	=11-	=11-
1c	-tum	1c	-tum	1cc	-tum	1ee	-tum	1c	-tum	1g	-tum	1cc	-tum	1r	.
=12-	=12-	=12-	=12-	=12-	=12-	=12-	=12-	=12-	=12-	=12-	=12-	=12-	=12-	=12-	=12-
!	!	!	!	!	!	!	!	!	!	!	!	!	!	!LO:SIC:v:t=custos ee	!
00r	.	00r	.	00r	.	00r	.	00r	.	00r	.	00r	.	1gg	Ve-
=13-	=13-	=13-	=13-	=13-	=13-	=13-	=13-	=13-	=13-	=13-	=13-	=13-	=13-	=13-	=13-
!	!	!	!	!	!	!	!	!	!	!	!	!	!	!LO:LB:g=original	!
.	.	.	.	.	.	.	.	.	.	.	.	.	.	2ee\	-ni
.	.	.	.	.	.	.	.	.	.	.	.	.	.	2ee\	ad
=14-	=14-	=14-	=14-	=14-	=14-	=14-	=14-	=14-	=14-	=14-	=14-	=14-	=14-	=14-	=14-
.	.	.	.	.	.	.	.	.	.	.	.	.	.	4ee\	li-
.	.	.	.	.	.	.	.	.	.	.	.	.	.	4ee\	-be-
.	.	.	.	.	.	.	.	.	.	.	.	.	.	2ff\	-ran-
=15-	=15-	=15-	=15-	=15-	=15-	=15-	=15-	=15-	=15-	=15-	=15-	=15-	=15-	=15-	=15-
.	.	.	.	.	.	.	.	.	.	.	.	.	.	2ee\	-dum
.	.	.	.	.	.	.	.	.	.	.	.	.	.	2ee\	nos
=16-	=16-	=16-	=16-	=16-	=16-	=16-	=16-	=16-	=16-	=16-	=16-	=16-	=16-	=16-	=16-
0r	.	0r	.	0r	.	0r	.	0r	.	0r	.	0r	.	2.dd\	Do-
.	.	.	.	.	.	.	.	.	.	.	.	.	.	4dd\	-mi-
=17-	=17-	=17-	=17-	=17-	=17-	=17-	=17-	=17-	=17-	=17-	=17-	=17-	=17-	=17-	=17-
.	.	.	.	.	.	.	.	.	.	.	.	.	.	1cc	-ne
=18-	=18-	=18-	=18-	=18-	=18-	=18-	=18-	=18-	=18-	=18-	=18-	=18-	=18-	=18-	=18-
2.c/	Do-	2.e/	Do-	2.cc\	Do-	2.ee\	Do-	2.c/	Do-	2.g\	Do-	2.cc\	Do-	00r	.
!	!	!	!	!	!	!	!	!LO:SIC:v:t=custos g	!	!	!	!	!	!	!
4c/	-mi-	4g\	-mi-	4cc\	-mi-	4ee\	-mi-	4c/	-mi-	4g\	-mi-	4cc\	-mi-	.	.
=19-	=19-	=19-	=19-	=19-	=19-	=19-	=19-	=19-	=19-	=19-	=19-	=19-	=19-	=19-	=19-
!	!	!	!	!	!	!	!	!LO:LB:g=original	!	!LO:SIC:v:t=custos e	!	!LO:SIC:v:t=custos cc	!	!	!
2G/	-ne	2g\	-ne	2b\	-ne	2dd\	-ne	2g\	-ne	2g\	-ne	2dd\	-ne	.	.
!LO:SIC:v:t=custos F	!	!LO:SIC:v:t=custos c	!	!	!	!	!	!	!	!LO:LB:g=original	!	!LO:LB:g=original	!	!	!
2c/	De-	2e/	De-	2cc\	De-	2ee\	De-	2c/	De-	2e/	De-	2cc\	De-	.	.
=20-	=20-	=20-	=20-	=20-	=20-	=20-	=20-	=20-	=20-	=20-	=20-	=20-	=20-	=20-	=20-
!LO:LB:g=original	!	!LO:LB:g=original	!	!LO:SIC:v:t=custos cc	!	!	!	!	!	!	!	!	!	!	!
2F/	-us	2c/	-us	2cc\	-us	2ff\	-us	2f\	-us	2a\	-us	2cc\	-us	.	.
!	!	!	!	!LO:LB:g=original	!	!	!	!	!	!	!	!	!	!	!
2c/	Vir-	2e/	Vir-	2.cc\	Vir-	2ee\	Vir-	2c/	Vir-	2g\	Vir-	2cc\	Vir-	.	.
=21-	=21-	=21-	=21-	=21-	=21-	=21-	=21-	=21-	=21-	=21-	=21-	=21-	=21-	=21-	=21-
!	!	!	!	!	!	!LO:SIC:v:t=custos ee	!	!	!	!	!	!	!	!	!
1G	-tu-	1.g	.	.	.	1dd	-tu-	1g	-tu-	1g	-tu-	1dd	-tu-	.	.
.	.	.	.	8b\L	.	.	.	.	.	.	.	.	.	.	.
.	.	.	.	8a\J	.	.	.	.	.	.	.	.	.	.	.
.	.	.	.	2b\	-tu-	.	.	.	.	.	.	.	.	.	.
=22-	=22-	=22-	=22-	=22-	=22-	=22-	=22-	=22-	=22-	=22-	=22-	=22-	=22-	=22-	=22-
!	!	!	!	!	!	!LO:LB:g=original	!	!	!	!	!	!	!	!	!
0c	-tum	.	.	0cc	-tum	0ee	-tum	1.c	-tum	2g,\	-tum,	2cc,\	-tum,	0r	.
.	.	2g\	-tu-	.	.	.	.	.	.	2e/	Os-	2g/	Os-	.	.
=23-	=23-	=23-	=23-	=23-	=23-	=23-	=23-	=23-	=23-	=23-	=23-	=23-	=23-	=23-	=23-
.	.	1e	-tum.	.	.	.	.	.	.	1g	-ten-	1cc	-ten-	.	.
.	.	.	.	.	.	.	.	2c/	O-	.	.	.	.	.	.
=24-	=24-	=24-	=24-	=24-	=24-	=24-	=24-	=24-	=24-	=24-	=24-	=24-	=24-	=24-	=24-
00r	.	00r	.	00r	.	00r	.	1f	-sten-	2a,\	-de	2a\	-de,	2r	.
.	.	.	.	.	.	.	.	.	.	2f\	o-	2a\	o-	2cc\	Os-
=25-	=25-	=25-	=25-	=25-	=25-	=25-	=25-	=25-	=25-	=25-	=25-	=25-	=25-	=25-	=25-
.	.	.	.	.	.	.	.	2d\	-de,	1a	-sten-	1dd	-sten-	1ff	-ten-
.	.	.	.	.	.	.	.	2d\	o-	.	.	.	.	.	.
=26-	=26-	=26-	=26-	=26-	=26-	=26-	=26-	=26-	=26-	=26-	=26-	=26-	=26-	=26-	=26-
.	.	.	.	.	.	.	.	1g	-sten-	2g\	-de	2b\	-de	2dd,\	-de,
.	.	.	.	.	.	.	.	.	.	2g\	o-	2b\	o-	2dd\	O-
=27-	=27-	=27-	=27-	=27-	=27-	=27-	=27-	=27-	=27-	=27-	=27-	=27-	=27-	=27-	=27-
.	.	.	.	.	.	.	.	2e,\	-de,	1b	-sten-	1ee	-sten-	1gg	-sten-
.	.	.	.	.	.	.	.	2e\	o-	.	.	.	.	.	.
=28-	=28-	=28-	=28-	=28-	=28-	=28-	=28-	=28-	=28-	=28-	=28-	=28-	=28-	=28-	=28-
0r	.	0r	.	0r	.	0r	.	1a	-sten-	2a\	-de	2cc,\	-de,	2ee\	-de,
.	.	.	.	.	.	.	.	.	.	2a\	o-	2cc\	O-	2ee\	O-
=29-	=29-	=29-	=29-	=29-	=29-	=29-	=29-	=29-	=29-	=29-	=29-	=29-	=29-	=29-	=29-
.	.	.	.	.	.	.	.	2f,\	-de,	1cc	-sten-	1ff	-sten-	1aa	-sten-
.	.	.	.	.	.	.	.	2f\	os-	.	.	.	.	.	.
=30-	=30-	=30-	=30-	=30-	=30-	=30-	=30-	=30-	=30-	=30-	=30-	=30-	=30-	=30-	=30-
1G	Os-	1d	Os-	1b	Os-	1dd	Os-	1b-X	-ten-	0dd	-de	0dd	-de	2ff,\	-de
!	!	!	!	!	!	!	!	!	!	!	!	!	!	!LO:SIC:v:t=custos gg	!
.	.	.	.	.	.	.	.	.	.	.	.	.	.	2ff\	O-
=31-	=31-	=31-	=31-	=31-	=31-	=31-	=31-	=31-	=31-	=31-	=31-	=31-	=31-	=31-	=31-
!	!	!	!	!	!	!	!	!	!	!	!	!	!	!LO:LB:g=original	!
1G	-ten-	1g	-ten-	1b	-ten-	1dd	-ten-	4g\	-de	.	.	.	.	1gg	-sten-
.	.	.	.	.	.	.	.	4f\	.	.	.	.	.	.	.
.	.	.	.	.	.	.	.	4e\	.	.	.	.	.	.	.
.	.	.	.	.	.	.	.	4d\	.	.	.	.	.	.	.
=32-	=32-	=32-	=32-	=32-	=32-	=32-	=32-	=32-	=32-	=32-	=32-	=32-	=32-	=32-	=32-
!	!	!	!	!	!	!	!	!LO:SIC:v:t=custos f	!	!	!	!	!	!	!
2c/	-de	2e/	-de	2g/	-de	2ee\	-de	2c/	.	2r	.	2r	.	2ee\	-de
!	!	!	!	!	!	!	!	!LO:LB:g=original	!	!LO:TX:t=P:problem:niewyraźne źródło	!	!	!	!	!
2.F/	fa-	2.c/	fa-	2.cc\	fa-	2.cc\	fa-	2.f\	fa-	2.a\	fa-	2.cc\	fa-	2.ff\	fa-
=33-	=33-	=33-	=33-	=33-	=33-	=33-	=33-	=33-	=33-	=33-	=33-	=33-	=33-	=33-	=33-
.	.	.	.	.	.	.	.	.	.	.	.	.	.	.	.
!	!	!	!	!	!	!	!	!	!	!	!	!LO:SIC:v:t=custos cc	!	!	!
4F/	-ci-	4c/	-ci-	4cc\	-ci-	4cc\	-ci-	4f\	-ci-	4a\	-ci-	4cc\	-ci-	4ff\	-ci-
!	!	!	!	!	!	!	!	!	!	!LO:SIC:v:t=custos g	!	!LO:LB:g=original	!	!	!
2c/	-em	2e,/	-em,	2g/	-em	2cc\	-em	2c/	-em	2g\	-em	2.cc\	-em	2ee\	-em
=34-	=34-	=34-	=34-	=34-	=34-	=34-	=34-	=34-	=34-	=34-	=34-	=34-	=34-	=34-	=34-
!	!	!	!	!	!	!	!	!	!	!LO:LB:g=original	!	!	!	!	!
4g\	tu-	1g	tu-	1g	tu-	1dd	tu-	1G	tu-	1g	tu-	.	.	1dd	tu-
4f\	.	.	.	.	.	.	.	.	.	.	.	8b\L	.	.	.
.	.	.	.	.	.	.	.	.	.	.	.	8a\J	.	.	.
4e\	.	.	.	.	.	.	.	.	.	.	.	2b\	tu-	.	.
4d\	.	.	.	.	.	.	.	.	.	.	.	.	.	.	.
=35-	=35-	=35-	=35-	=35-	=35-	=35-	=35-	=35-	=35-	=35-	=35-	=35-	=35-	=35-	=35-
2c/	-am	2g\	-am	2g/	-am	2cc,\	-am,	2c,/	-am,	2g,\	-am,	2cc,\	-am	2ee,\	-am,
2c/	et	2e/	et	2cc\	et	2ee\	et	2c/	et	2g\	et	2cc\	et	2gg\	et
=36-	=36-	=36-	=36-	=36-	=36-	=36-	=36-	=36-	=36-	=36-	=36-	=36-	=36-	=36-	=36-
2f\	ſal-	2c/	ſal-	2a\	ſal-	2cc\	ſal-	2F/	ſal-	2a\	ſal-	2cc\	ſal-	2ff\	ſal-
2c/	-ui	2e/	-ui	2cc\	-ui	2cc\	-ui	2c/	-ui	2g\	-ui	2cc\	-ui	2ee\	-ui
=37-	=37-	=37-	=37-	=37-	=37-	=37-	=37-	=37-	=37-	=37-	=37-	=37-	=37-	=37-	=37-
2g\	e-	2g\	e-	2dd\	e-	2dd\	e-	2G/	e-	2g\	e-	2b\	e-	2dd\	e-
!	!	!LO:SIC:v:t=custos g	!	!	!	!	!	!	!	!	!	!	!	!	!
2g\	-ri-	2d/	-ri-	2b\	-ri-	2dd\	-ri-	2G/	-ri-	2g\	-ri-	2b\	-ri-	2dd\	-ri-
=38-	=38-	=38-	=38-	=38-	=38-	=38-	=38-	=38-	=38-	=38-	=38-	=38-	=38-	=38-	=38-
!	!	!LO:LB:g=original	!	!	!	!	!	!	!	!	!	!	!	!	!
2c/	-mus	2g\	-mus	2g,/	-mus,	2cc,\	-mus,	2c/	-mus,	2g,\	-mus,	2cc\	-mus	2ee,\	-mus,
2c/	et	2c/	et	2cc\	et	2cc\	et	2c/	et	2g\	et	2ee\	et	2ee\	et
=39-	=39-	=39-	=39-	=39-	=39-	=39-	=39-	=39-	=39-	=39-	=39-	=39-	=39-	=39-	=39-
!	!	!	!	!LO:SIC:v:t=custos cc	!	!	!	!	!	!	!	!	!	!	!
2F/	ſal-	2c/	ſal-	2cc\	ſal-	2cc\	ſal-	2f\	ſal-	2a\	ſal-	2cc\	ſal-	2ff\	ſal-
!LO:LB:g=original	!	!	!	!LO:PB:g=original	!	!	!	!	!	!	!	!	!	!	!
2c/	-ui	2e/	-ui	2cc\	-ui	2ee\	-ui	2c/	-ui	2g\	-ui	2cc\	-ui	2ee\	-ui
=40-	=40-	=40-	=40-	=40-	=40-	=40-	=40-	=40-	=40-	=40-	=40-	=40-	=40-	=40-	=40-
2G/	e-	2g\	e-	2dd\	e-	2dd\	e-	2.g\	e-	2g\	e-	2b\	e-	2gg\	e-
2G/	-ri-	2g\	-ri-	2dd\	-ri-	2dd\	-ri-	.	.	2g\	-ri-	2b\	-ri-	2gg\	-ri-
.	.	.	.	.	.	.	.	4g\	-ri-	.	.	.	.	.	.
=41-	=41-	=41-	=41-	=41-	=41-	=41-	=41-	=41-	=41-	=41-	=41-	=41-	=41-	=41-	=41-
1c	-mus	1e	-mus	1cc	-mus	1ee	-mus.	1c	-mus	1g	-mus,	1cc	-mus.	1gg	-mus
=42-	=42-	=42-	=42-	=42-	=42-	=42-	=42-	=42-	=42-	=42-	=42-	=42-	=42-	=42-	=42-
!	!	!	!	!	!	!LO:SIC:v:t=custos ee	!	!	!	!	!	!	!	!	!
00r	.	00r	.	00r	.	00r	.	00r	.	00r	.	00r	.	1ee	Os-
=43-	=43-	=43-	=43-	=43-	=43-	=43-	=43-	=43-	=43-	=43-	=43-	=43-	=43-	=43-	=43-
!	!	!	!	!	!	!	!	!	!	!	!	!	!	!LO:SIC:v:t=custos ee	!
.	.	.	.	.	.	.	.	.	.	.	.	.	.	2ee\	-ten-
!	!	!	!	!	!	!	!	!	!	!	!	!	!	!LO:LB:g=original	!
.	.	.	.	.	.	.	.	.	.	.	.	.	.	2ee\	-de
=44-	=44-	=44-	=44-	=44-	=44-	=44-	=44-	=44-	=44-	=44-	=44-	=44-	=44-	=44-	=44-
.	.	.	.	.	.	.	.	.	.	.	.	.	.	1ee	fa-
=45-	=45-	=45-	=45-	=45-	=45-	=45-	=45-	=45-	=45-	=45-	=45-	=45-	=45-	=45-	=45-
.	.	.	.	.	.	.	.	.	.	.	.	.	.	2dd\	-ci-
.	.	.	.	.	.	.	.	.	.	.	.	.	.	2cc\	-em
=46-	=46-	=46-	=46-	=46-	=46-	=46-	=46-	=46-	=46-	=46-	=46-	=46-	=46-	=46-	=46-
!	!	!	!	!	!	!LO:PB:g=original	!	!	!	!	!	!	!	!	!
1r	.	1r	.	1r	.	1r	.	1r	.	1r	.	1r	.	1b	tu-
=47-	=47-	=47-	=47-	=47-	=47-	=47-	=47-	=47-	=47-	=47-	=47-	=47-	=47-	=47-	=47-
!	!	!LO:TX:t=P:problem:niewyraźne źródło	!	!	!	!	!	!	!	!	!	!	!	!	!
2r	.	2r	.	2r	.	2r	.	2r	.	2r	.	2r	.	2a/	-am
!	!	!	!	!	!	!	!	!LO:SIC:v:t=custos d	!	!	!	!	!	!	!
2a\	et	2e/	et	2cc\	et	2ee\	et	2A/	et	2a\	et	2cc\	et	2r	.
=48-	=48-	=48-	=48-	=48-	=48-	=48-	=48-	=48-	=48-	=48-	=48-	=48-	=48-	=48-	=48-
!	!	!	!	!	!	!	!	!LO:PB:g=original	!	!	!	!	!	!	!
2d\	ſal-	2d/	ſal-	2a\	sal-	2ff\	sal-	2d\	sal-	2a\	ſal-	2dd\	ſal-	0r	.
!	!	!	!	!	!	!	!	!	!	!	!	!LO:SIC:v:t=custos ee	!	!	!
2a\	-ui	2e/	-ui	2cc\	-ui	2ee\	-ui	2A/	-ui	2a\	-ui	2ee\	-ui	.	.
=49-	=49-	=49-	=49-	=49-	=49-	=49-	=49-	=49-	=49-	=49-	=49-	=49-	=49-	=49-	=49-
!	!	!	!	!	!	!	!	!	!	!	!	!LO:LB:g=original	!	!	!
2e\	e-	2e/	e-	2b\	e-	2ee\	e-	2e\	e-	2g\	e-	2ee\	e-	.	.
!	!	!	!	!	!	!	!	!	!	!LO:TX:b:t=P:problem:# below	!	!	!	!	!
2e\	-ri-	4B/	-ri-	2b\	-ri-	2ee\	-ri-	2e\	-ri-	2g#X\	-ri-	2b\	-ri-	.	.
.	.	4e/	.	.	.	.	.	.	.	.	.	.	.	.	.
=50-	=50-	=50-	=50-	=50-	=50-	=50-	=50-	=50-	=50-	=50-	=50-	=50-	=50-	=50-	=50-
!	!	!	!	!	!	!	!	!	!	!LO:SIC:v:t=custos g	!	!	!	!	!
2a\	-mus	2e/	-mus	2a\	-mus	2ee\	-mus,	2A/	-mus	2a\	-mus	2cc#X\	-mus,	2r	.
!	!	!	!	!	!	!	!	!	!	!LO:PB:g=original	!	!	!	!	!
2r	.	2r	.	2r	.	2r	.	2r	.	2r	.	2r	.	2gg\	Os-
=51-	=51-	=51-	=51-	=51-	=51-	=51-	=51-	=51-	=51-	=51-	=51-	=51-	=51-	=51-	=51-
!	!	!LO:TX:t=P:problem:niewyraźne źródło	!	!	!	!	!	!	!	!	!	!	!	!	!
00r	.	00r	.	00r	.	00r	.	00r	.	00r	.	00r	.	2gg\	-ten-
.	.	.	.	.	.	.	.	.	.	.	.	.	.	2gg\	-de
=52-	=52-	=52-	=52-	=52-	=52-	=52-	=52-	=52-	=52-	=52-	=52-	=52-	=52-	=52-	=52-
.	.	.	.	.	.	.	.	.	.	.	.	.	.	1gg	fa-
=53-	=53-	=53-	=53-	=53-	=53-	=53-	=53-	=53-	=53-	=53-	=53-	=53-	=53-	=53-	=53-
.	.	.	.	.	.	.	.	.	.	.	.	.	.	2ff\	-ci-
.	.	.	.	.	.	.	.	.	.	.	.	.	.	2ee\	-em
=54-	=54-	=54-	=54-	=54-	=54-	=54-	=54-	=54-	=54-	=54-	=54-	=54-	=54-	=54-	=54-
!	!	!	!	!	!	!	!	!	!	!	!	!	!	!LO:TX:t=P:problem:dźwięk niewidoczny	!
.	.	.	.	.	.	.	.	.	.	.	.	.	.	1dd	tu-
=55-	=55-	=55-	=55-	=55-	=55-	=55-	=55-	=55-	=55-	=55-	=55-	=55-	=55-	=55-	=55-
2r	.	2r	.	2r	.	2r	.	2r	.	2r	.	2r	.	2cc\	-am
2c/	et	2e/	et	2cc\	et	2gg\	et	2c/	et	2gny\	et	2ccny\	et	2r	.
=56-	=56-	=56-	=56-	=56-	=56-	=56-	=56-	=56-	=56-	=56-	=56-	=56-	=56-	=56-	=56-
2F/	ſal-	2c/	ſal-	2cc\	ſal-	2ff\	ſal-	2f\	ſal-	2a\	ſal-	2cc\	ſal-	0r	.
2c/	-ui	2e/	-ui	2cc\	-ui	2ee\	-ui	2c/	-ui	2g\	-ui	2cc\	-ui	.	.
=57-	=57-	=57-	=57-	=57-	=57-	=57-	=57-	=57-	=57-	=57-	=57-	=57-	=57-	=57-	=57-
2g\	e-	2g\	e-	2b\	e-	2dd\	e-	2G/	e-	2g\	e-	2dd\	e-	.	.
!	!	!LO:SIC:v:t=custos e	!	!	!	!	!	!	!	!	!	!	!	!	!
2g\	-ri-	2g\	-ri-	2b\	-ri-	2dd\	-ri-	2G/	-ri-	2g\	-ri-	2dd\	-ri-	.	.
=58-	=58-	=58-	=58-	=58-	=58-	=58-	=58-	=58-	=58-	=58-	=58-	=58-	=58-	=58-	=58-
!	!	!LO:LB:g=original	!	!	!	!	!	!	!	!	!	!	!	!	!
2c,/	-mus	2e/	-mus	2cc,\	-mus	2ee,\	-mus,	2c,/	-mus	2g,\	-mus,	2cc,\	-mus	2r	.
*	*	*	*	*	*	*	*	*	*ij	*	*	*	*	*	*
2g\	et	2g\	et	2b\	et	2dd\	et	2G/	et	2g\	et	2dd\	et	2dd\	et
=59-	=59-	=59-	=59-	=59-	=59-	=59-	=59-	=59-	=59-	=59-	=59-	=59-	=59-	=59-	=59-
2c/	ſal-	2g\	ſal-	2cc\	ſal-	2ee\	ſal-	2c/	ſal-	2e/	ſal-	2ee\	ſal-	4ee\	ſal-
.	.	.	.	.	.	.	.	.	.	.	.	.	.	4ff\	.
!LO:SIC:v:t=custos d	!	!	!	!	!	!	!	!	!	!	!	!	!	!	!
2g\	-ui	2d/	-ui	2b\	-u	2dd\	-ui	2G/	-ui	2g\	-ui	2dd\	-ui	2gg\	-ui
=60-	=60-	=60-	=60-	=60-	=60-	=60-	=60-	=60-	=60-	=60-	=60-	=60-	=60-	=60-	=60-
!LO:PB:g=original	!	!	!	!	!	!	!	!	!	!	!	!	!	!LO:TX:a:t=P:problem:# below	!
2.d\	e-	2.d/	e-	2.a\	e-	2.dd\	e-	2.d\	e-	2.a\	e-	2.dd\	e-	2ff#X\	e-
.	.	.	.	.	.	.	.	.	.	.	.	.	.	2ff#\	-ri-
4d\	-ri-	4d/	-ri-	4a\	-ri-	4dd\	-ri-	4d\	-ri-	4a\	-ri-	4dd\	-ri-	.	.
=61-	=61-	=61-	=61-	=61-	=61-	=61-	=61-	=61-	=61-	=61-	=61-	=61-	=61-	=61-	=61-
!	!	!	!	!LO:SIC:v:t=custos cc	!	!	!	!LO:SIC:v:t=custos c	!	!	!	!	!	!LO:SIC:v:t=custos dd	!
1g	-mus	1d	-mus	1b	-mus.	1dd	-mus.	1G	-mus	1g	-mus	1b	-mus	1ffny	-mus
*	*	*	*	*	*	*	*	*	*Xij	*	*	*	*	*	*
=62-	=62-	=62-	=62-	=62-	=62-	=62-	=62-	=62-	=62-	=62-	=62-	=62-	=62-	=62-	=62-
!	!	!	!	!LO:LB:g=original	!	!	!	!LO:LB:g=original	!	!	!	!	!	!LO:LB:g=original	!
00r	.	00r	.	00r	.	00r	.	00r	.	00r	.	00r	.	1dd	Glo-
=63-	=63-	=63-	=63-	=63-	=63-	=63-	=63-	=63-	=63-	=63-	=63-	=63-	=63-	=63-	=63-
.	.	.	.	.	.	.	.	.	.	.	.	.	.	2dd\	-ri-
.	.	.	.	.	.	.	.	.	.	.	.	.	.	2dd\	-a
=64-	=64-	=64-	=64-	=64-	=64-	=64-	=64-	=64-	=64-	=64-	=64-	=64-	=64-	=64-	=64-
.	.	.	.	.	.	.	.	.	.	.	.	.	.	1dd	Pa-
=65-	=65-	=65-	=65-	=65-	=65-	=65-	=65-	=65-	=65-	=65-	=65-	=65-	=65-	=65-	=65-
.	.	.	.	.	.	.	.	.	.	.	.	.	.	2cc\	-tri
.	.	.	.	.	.	.	.	.	.	.	.	.	.	2dd\	et
=66-	=66-	=66-	=66-	=66-	=66-	=66-	=66-	=66-	=66-	=66-	=66-	=66-	=66-	=66-	=66-
1r	.	1r	.	1r	.	1r	.	1r	.	1r	.	1r	.	2.ee\	Fi-
.	.	.	.	.	.	.	.	.	.	.	.	.	.	4ee\	-li-
=67-	=67-	=67-	=67-	=67-	=67-	=67-	=67-	=67-	=67-	=67-	=67-	=67-	=67-	=67-	=67-
2r	.	2r	.	2r	.	2r	.	2r	.	2r	.	2r	.	2dd\	-o
!	!	!	!	!	!	!LO:SIC:v:t=custos ff	!	!	!	!	!	!	!	!	!
2c/	et	2g\	et	2cc\	et	2ee\	et	2c/	et	2g\	et	2cc\	et	2r	.
=68-	=68-	=68-	=68-	=68-	=68-	=68-	=68-	=68-	=68-	=68-	=68-	=68-	=68-	=68-	=68-
!	!	!	!	!	!	!LO:LB:g=original	!	!	!	!	!	!	!	!	!
2.f\	spi-	2.f\	ſpi-	2.a\	spi-	2.ff\	ſpi-	2.F/	spi-	2.a\	spi-	2.cc\	ſpi-	00r	.
!	!	!	!	!	!	!	!	!	!	!	!	!LO:SIC:v:t=custos cc	!	!	!
4f\	-ri-	4f\	-ri-	4a\	-ri-	4ff\	-ri-	4F/	-ri-	4a\	-ri-	4cc\	-ri-	.	.
=69-	=69-	=69-	=69-	=69-	=69-	=69-	=69-	=69-	=69-	=69-	=69-	=69-	=69-	=69-	=69-
!	!	!	!	!	!	!	!	!	!	!	!	!LO:LB:g=original	!	!	!
2f\	-tu-	2a\	-tu-	2a\	-tu-	2ff\	-tu-	2F/	-tu-	2f\	-tu-	2cc\	-tu-	.	.
!	!	!	!	!	!	!	!	!	!	!LO:SIC:v:t=custos g	!	!	!	!	!
2c/	-i	2g\	-i	2.cc\	-i	2ee\	-i	2c/	-i	2g\	-i	2cc\	-i	.	.
=70-	=70-	=70-	=70-	=70-	=70-	=70-	=70-	=70-	=70-	=70-	=70-	=70-	=70-	=70-	=70-
!	!	!	!	!	!	!	!	!	!	!LO:LB:g=original	!	!	!	!	!
1g	san-	1a	San-	.	.	1dd	san-	1G	san-	1g	san-	1dd	ſan-	.	.
.	.	.	.	8b\L	.	.	.	.	.	.	.	.	.	.	.
.	.	.	.	8a\J	.	.	.	.	.	.	.	.	.	.	.
.	.	.	.	2b\	san-	.	.	.	.	.	.	.	.	.	.
=71-	=71-	=71-	=71-	=71-	=71-	=71-	=71-	=71-	=71-	=71-	=71-	=71-	=71-	=71-	=71-
2c/	-cto.	2e/	-cto.	2cc\	-cto.	2ee\	-cto,.	2c/	-cto	2g\	-cto.	2cc,\	-cto,	.	.
2d\	Al-	2a\	Al-	2dd\	Al-	2dd\	Al-	2r	.	2r	.	2r	.	.	.
=72-	=72-	=72-	=72-	=72-	=72-	=72-	=72-	=72-	=72-	=72-	=72-	=72-	=72-	=72-	=72-
2A/	-l(e-	2a\	-l(e-	2cc\	-le-	2ee\	-le-	1r	.	1r	.	1r	.	1r	.
2c/	-lu-	2g\	-lu-	2cc\	-lu-	2cc\	-lu-	.	.	.	.	.	.	.	.
=73-	=73-	=73-	=73-	=73-	=73-	=73-	=73-	=73-	=73-	=73-	=73-	=73-	=73-	=73-	=73-
2G/	-i)a.	2g\	-i)a.	2b\	-ia.	2dd\	-ia.	2r	.	2r	.	2r	.	2r	.
*	*	*	*	*	*	*	*	*	*	*	*	*	*ij	*	*
!	!	!	!	!	!	!	!	!	!	!	!	!	!	!LO:TX:t=P:problem:litera A czerwonym atramentem	!
2r	.	2r	.	2r	.	2r	.	2c/	Al-	2g\	Al-	2cc\	\!!-	2ee\	Al-
=74-	=74-	=74-	=74-	=74-	=74-	=74-	=74-	=74-	=74-	=74-	=74-	=74-	=74-	=74-	=74-
1r	.	1r	.	1r	.	1r	.	2f\	-l(e-	2a\	-l(e-	2cc\	-\!!e-	2ff\	-le-
.	.	.	.	.	.	.	.	2g\	-lu-	2g\	-lu-	2b\	-lu-	2dd\	-lu-
=75-	=75-	=75-	=75-	=75-	=75-	=75-	=75-	=75-	=75-	=75-	=75-	=75-	=75-	=75-	=75-
!	!	!LO:SIC:v:t=custos g	!	!	!	!	!	!	!	!	!	!	!	!	!
2r	.	2r	.	2r	.	2r	.	2c/	-i)a.	2g\	-i)a.	2cc\	-ia	2ee\	-ia
!	!	!LO:PB:g=original	!	!	!	!	!	!	!	!	!	!	!	!	!
2c/	Al-	2g\	Al-	2cc\	Al-	2ee\	Al-	2r	.	2r	.	2r	.	2r	.
=76-	=76-	=76-	=76-	=76-	=76-	=76-	=76-	=76-	=76-	=76-	=76-	=76-	=76-	=76-	=76-
2f\	-l(e-	2a\	-l(e-	2a\	-l(e-	2cc\	-l(e-	1r	.	1r	.	1r	.	1r	.
2d\	-lu-	2f\	-lu-	2b\	-lu-	2dd\	-lu-	.	.	.	.	.	.	.	.
=77-	=77-	=77-	=77-	=77-	=77-	=77-	=77-	=77-	=77-	=77-	=77-	=77-	=77-	=77-	=77-
2c/	-i)a.	2g\	-i)a.	2cc\	-i)a.	2ee\	-i)a.	2r	.	2r	.	2r	.	2r	.
!LO:SIC:v:t=custos F	!	!	!	!	!	!	!	!	!	!	!	!	!	!	!
2r	.	2r	.	2r	.	2r	.	2G/	Al-	2b\	Al-	2dd\	\!!-	2gg\	(A)l-
=78-	=78-	=78-	=78-	=78-	=78-	=78-	=78-	=78-	=78-	=78-	=78-	=78-	=78-	=78-	=78-
!LO:LB:g=original	!	!	!	!	!	!	!	!	!	!	!	!	!	!	!
1r	.	1r	.	1r	.	1r	.	2c/	-l(e-	2cc\	-l(e-	2ee\	-\!!e-	2ee\	-l(e-
.	.	.	.	.	.	.	.	2d\	-lu-	2a\	-lu-	2dd\	-lu-	2ff\	.
=79-	=79-	=79-	=79-	=79-	=79-	=79-	=79-	=79-	=79-	=79-	=79-	=79-	=79-	=79-	=79-
!	!	!	!	!	!	!	!	!LO:SIC:v:t=custos g	!	!	!	!	!	!	!
2r	.	2r	.	2r	.	2r	.	2G/	-i)a	2b\	-i)a.	2dd\	-ia	2gg\	-lu-
!	!	!	!	!	!	!	!	!LO:LB:g=original	!	!	!	!	!	!	!
1G/	Al-	1g\	Al-	1dd\	Al-	1dd\	Al-	1g\	Al-	1g\	Al-	1b\	\!!-	1dd\	.
=80-	=80-	=80-	=80-	=80-	=80-	=80-	=80-	=80-	=80-	=80-	=80-	=80-	=80-	=80-	=80-
.	.	.	.	.	.	.	.	.	.	.	.	.	.	.	.
!	!	!	!	!	!	!	!	!	!	!	!	!	!	!LO:SIC:v:t=custos ee	!
2G/	-l(e-	2g\	-l(e-	2b\	.	2dd\	-l(e-	2g\	-l(e-	2g\	-l(e-	2dd\	-\!!e-	2dd\	-i)a
=81-	=81-	=81-	=81-	=81-	=81-	=81-	=81-	=81-	=81-	=81-	=81-	=81-	=81-	=81-	=81-
*	*	*	*	*lig	*	*	*	*	*	*	*	*	*	*	*
!	!	!	!	!	!	!	!	!	!	!	!	!	!	!LO:LB:g=original	!
2c/	-lu-	2e/	-lu-	1cc	-l(e-	1cc	-lu-	4c/	-lu-	1g	-lu-	2g/	-lu-	4ee\	Al-
.	.	.	.	.	.	.	.	4d\	.	.	.	.	.	4ff\	.
2c/	-i)a.	2g\	-i)a.	.	.	.	.	4e\	.	.	.	2cc\	-ia	1gg\	-l(e-
.	.	.	.	.	.	.	.	4f\	.	.	.	.	.	.	.
=82-	=82-	=82-	=82-	=82-	=82-	=82-	=82-	=82-	=82-	=82-	=82-	=82-	=82-	=82-	=82-
4G/	Al-	2g\	Al-	1b	.	2dd\	-i)a	2g\	-i)a.	2g\	-i)a	2b\	\!!-	.	.
4A/	.	.	.	.	.	.	.	.	.	.	.	.	.	.	.
*	*	*	*	*	*	*	*	*	*	*	*ij	*	*	*	*
!	!	!	!	!	!	!LO:SIC:v:t=custos dd	!	!	!	!	!	!	!	!	!
4B/	.	2d/	-l(e-	.	.	2dd\	Al.-	2g\	Al-	2g\	Al-	1dd\	-\!!e-	4ff\	.
4c/	.	.	.	.	.	.	.	.	.	.	.	.	.	4ee\	.
*	*	*	*	*Xlig	*	*	*	*	*	*	*	*	*	*	*
=83-	=83-	=83-	=83-	=83-	=83-	=83-	=83-	=83-	=83-	=83-	=83-	=83-	=83-	=83-	=83-
!	!	!	!	!	!	!LO:LB:g=original	!	!	!	!	!	!	!	!LO:TX:t=P:problem:# below	!
2.d\	-l(e-	1d	-lu-	1a	-lu-	2.dd\	-le-	2.d\	-l(e-	2.a\	-l(e-	.	.	1ff#X	-lu-
.	.	.	.	.	.	.	.	.	.	.	.	2dd\	-lu-	.	.
4d\	-lu-	.	.	.	.	4dd\	-lu-	4d\	-lu-	4a\	-lu-	.	.	.	.
=84-	=84-	=84-	=84-	=84-	=84-	=84-	=84-	=84-	=84-	=84-	=84-	=84-	=84-	=84-	=84-
0g;	-i)a.	0d;	-i)a.	0b;	-ia.	0dd;	-ia.	0G;	-i)a.	0g;	-i)a	0b	-ia	0gg	-i)a
*	*	*	*	*	*	*	*	*	*	*	*	*	*Xij	*	*
==	==	==	==	==	==	==	==	==	==	==	==	==	==	==	==
*-	*-	*-	*-	*-	*-	*-	*-	*-	*-	*-	*-	*-	*-	*-	*-
!!!system-decoration: [(s1,s2,s3,s4)][(s5,s6,s7,s8)]
!!!RDF**kern: > = above
!!!RDF**kern: < = below
!!!AIN: 8 empty
!!!ENC: Katarzyna Serwa
!!!END: 2021-10-22
!!!ENC: Filip Voros
!!!END: 2021-10-15
